;START_OF_HEADER
;HEADER_VERSION:0.1
;FLAVOR:Griffin
;GENERATOR.NAME:Cura_SteamEngine
;GENERATOR.VERSION:5.9.0
;GENERATOR.BUILD_DATE:2024-11-15
;TARGET_MACHINE.NAME:Ultimaker S3
;EXTRUDER_TRAIN.0.INITIAL_TEMPERATURE:195
;EXTRUDER_TRAIN.0.MATERIAL.VOLUME_USED:10002
;EXTRUDER_TRAIN.0.MATERIAL.GUID:44a029e6-e31b-4c9e-a12f-9282e29a92ff
;EXTRUDER_TRAIN.0.NOZZLE.DIAMETER:0.4
;EXTRUDER_TRAIN.0.NOZZLE.NAME:AA 0.4
;BUILD_PLATE.INITIAL_TEMPERATURE:60
;PRINT.TIME:1284
;PRINT.GROUPS:1
;PRINT.SIZE.MIN.X:83.328
;PRINT.SIZE.MIN.Y:74.457
;PRINT.SIZE.MIN.Z:0.6
;PRINT.SIZE.MAX.X:180
;PRINT.SIZE.MAX.Y:180
;PRINT.SIZE.MAX.Z:45
;SLICE_UUID:ed4e96ce-08da-44b3-b77e-707d11ffe253
;END_OF_HEADER
;Generated with Cura_SteamEngine 5.9.0
T0
M82 ;absolute extrusion mode

G92 E0
M190 S60
M104 S205
M109 S205
G280 S1
G0 Z20.001
G1 F2700 E-6.5
;LAYER_COUNT:75
G0 F9000 X180 Y180
;LAYER:0
;note -- min layer time used
M106 S255
M204 S1500
M205 X30 Y30
G1 F600 Z2.6
;MESH:octofrog.stl
G0 F9000 X122.965 Y79.406 Z2.6
;TYPE:WALL-OUTER
G1 F600 Z0.6
G1 F2700 E0
G1 F360 X123.475 Y79.195 E0.02284
G1 X124.002 Y78.752 E0.05133
G1 X124.459 Y78.088 E0.08469
G1 X124.486 Y77.656 E0.1026
G1 X124.268 Y77.429 E0.11563
G1 X124.017 Y77.381 E0.1262
G1 X123.641 Y77.473 E0.14222
G1 X123.324 Y77.644 E0.15713
G1 X122.671 Y78.282 E0.19491
G1 X122.53 Y79.137 E0.23077
G1 X122.661 Y79.363 E0.24158
G1 X122.965 Y79.406 E0.25428
G0 F9000 X123.475 Y79.195
G0 X123.664 Y79.036
G0 X123.26 Y78.842
;TYPE:WALL-INNER
G1 F337.6 X123.692 Y78.469 E0.27807
G1 F330.7 X124.051 Y77.946 E0.305
G1 X124.06 Y77.812 E0.3107
G1 X123.574 Y77.983 E0.33258
G1 F337.6 X123.052 Y78.48 E0.36262
G1 F343.9 X122.971 Y78.963 E0.38269
G1 X123.26 Y78.842 E0.39553
G1 F2700 E-6.10447
G0 F9000 X119.402 Y78.197
G0 X110.696 Y78.795
G0 X107.336 Y79.36
M104 S197.4
;TYPE:WALL-OUTER
G1 F2700 E0.39553
G1 F360 X107.467 Y79.137 E0.40623
G1 X107.321 Y78.262 E0.44294
G1 X106.704 Y77.66 E0.47862
G1 X106.356 Y77.473 E0.49496
G1 X105.978 Y77.385 E0.51103
G1 X105.728 Y77.43 E0.52154
G1 X105.509 Y77.656 E0.53456
G1 X105.533 Y78.058 E0.55123
G1 X105.999 Y78.756 E0.58596
G1 X106.529 Y79.195 E0.61444
G1 X107.027 Y79.405 E0.6368
G1 X107.336 Y79.36 E0.64973
G0 F9000 X107.467 Y79.137
G0 X107.378 Y78.604
G0 X107.019 Y78.956
;TYPE:WALL-INNER
G1 F338.5 X106.938 Y78.461 E0.67058
G1 F332.4 X106.454 Y78 E0.69883
G1 F327.3 X106.207 Y77.868 E0.71083
G1 X105.938 Y77.817 E0.72256
G1 X105.945 Y77.92 E0.72699
G1 X106.313 Y78.472 E0.75542
G1 F332.4 X106.744 Y78.84 E0.77937
G1 F338.5 X107.019 Y78.956 E0.79178
G1 F2700 E-5.70822
;MESH:NONMESH
G0 F600 X107.019 Y78.956 Z1.2
G0 F9000 X110.621 Y78.351
G0 X120.178 Y81.523
G0 X122.475 Y80.152
;TIME_ELAPSED:9.476349
;LAYER:1
;note -- min layer time used
M205 X50 Y50
;TYPE:WALL-OUTER
;MESH:octofrog.stl
G1 F2700 E0.79178
G1 F712 X122.95 Y80.06 E0.80998
G1 X123.727 Y79.662 E0.84282
G1 X125.041 Y78.627 E0.90575
G1 X125.68 Y77.961 E0.94047
G1 X125.9 Y77.48 E0.96037
G1 X125.865 Y77.069 E0.97589
G1 X125.562 Y76.658 E0.9951
G1 X125.005 Y76.375 E1.0186
G1 X124.324 Y76.292 E1.04441
G1 X123.491 Y76.564 E1.07738
G1 X122.812 Y77.085 E1.10958
G1 X122.283 Y77.728 E1.1409
G1 X121.889 Y78.58 E1.17622
G1 X121.834 Y79.291 E1.20305
G1 X121.912 Y79.777 E1.22156
G1 X122.157 Y80.029 E1.23479
G1 X122.475 Y80.152 E1.24761
M204 S3500
G0 F9000 X122.95 Y80.06
G0 X123.231 Y79.916
G0 X122.818 Y79.678
;TYPE:WALL-INNER
G1 F712 X123.51 Y79.324 E1.27978
G1 X124.771 Y78.33 E1.34623
G1 X125.344 Y77.733 E1.38047
G1 X125.492 Y77.409 E1.39521
G1 X125.476 Y77.215 E1.40327
G1 X125.296 Y76.972 E1.41578
G1 X124.887 Y76.764 E1.43477
G1 X124.364 Y76.7 E1.45658
G1 X123.68 Y76.923 E1.48635
G1 X123.233 Y77.266 E1.50967
G1 X123.092 Y77.375 E1.51704
G1 X122.625 Y77.943 E1.54747
G1 X122.282 Y78.682 E1.58119
G1 X122.236 Y79.275 E1.6058
G1 X122.287 Y79.588 E1.61893
G1 X122.512 Y79.738 E1.63012
G1 X122.818 Y79.678 E1.64302
G0 F9000 X122.72 Y79.365
;TYPE:SKIN
G1 F712 X123.335 Y79.05 E1.67032
G1 X124.345 Y78.257 E1.72104
G1 X124.561 Y78.087 E1.7319
G1 X125.072 Y77.553 E1.7611
G1 X125.153 Y77.377 E1.76875
G1 X125.071 Y77.217 E1.77585
G1 X124.999 Y77.18 E1.77905
G1 X124.792 Y77.075 E1.78822
G1 X124.392 Y77.025 E1.80414
G1 X123.831 Y77.208 E1.82745
G1 X123.316 Y77.601 E1.85304
G1 X123.094 Y77.872 E1.86688
G1 X122.917 Y78.089 E1.87794
G1 X122.895 Y78.116 E1.87932
G1 X122.596 Y78.761 E1.9074
G1 X122.594 Y79.25 E1.92672
G1 X122.594 Y79.369 E1.93142
G1 X122.678 Y79.366 E1.93474
G1 X122.72 Y79.365 E1.9364
G0 F9000 X124.032 Y77.352
G1 F712 X122.985 Y78.399 E1.99489
G0 F9000 X122.902 Y79.047
G1 F712 X123.949 Y78 E2.05338
M104 S205
M205 X30 Y30
G1 X124.683 Y77.266 E2.09438
M204 S1500
G0 F9000 X124.672 Y77.351
G1 F2700 E-4.40562
G0 F9000 X122.114 Y78.637
G0 X118.655 Y78.374
G0 X111.392 Y79.023
G0 X107.934 Y79.281
G0 X107.839 Y80.029
M205 X50 Y50
;TYPE:WALL-OUTER
G1 F2700 E2.09438
G1 F712 X108.084 Y79.777 E2.10761
G1 X108.163 Y79.291 E2.12613
G1 X108.111 Y78.572 E2.15325
G1 X107.732 Y77.768 E2.18669
G1 X107.178 Y77.079 E2.21995
G1 X106.536 Y76.572 E2.25073
G1 X105.675 Y76.296 E2.28474
G1 X104.986 Y76.371 E2.31082
G1 X104.43 Y76.653 E2.33427
G1 X104.131 Y77.065 E2.35342
G1 X104.096 Y77.483 E2.3692
G1 X104.316 Y77.958 E2.3889
G1 X104.959 Y78.635 E2.42402
G1 X106.308 Y79.686 E2.48836
G1 X107.05 Y80.06 E2.51962
G1 X107.521 Y80.152 E2.53767
G1 X107.839 Y80.029 E2.5505
M204 S3500
G0 F9000 X108.084 Y79.777
G0 X108.156 Y79.334
G0 X107.709 Y79.588
;TYPE:WALL-INNER
G1 F712 X107.761 Y79.273 E2.56371
G1 X107.717 Y78.675 E2.58853
G1 X107.382 Y77.964 E2.62105
G1 X106.894 Y77.365 E2.65302
G1 X106.345 Y76.93 E2.68201
G1 X105.634 Y76.703 E2.7129
G1 X105.102 Y76.761 E2.73504
G1 X104.697 Y76.966 E2.75383
G1 X104.521 Y77.21 E2.76628
G1 X104.504 Y77.411 E2.77463
G1 X104.651 Y77.73 E2.78916
G1 X105.041 Y78.14 E2.81258
G1 X105.229 Y78.338 E2.82388
G1 X106.524 Y79.346 E2.89179
G1 X107.181 Y79.678 E2.92225
G1 X107.483 Y79.737 E2.93499
G1 X107.709 Y79.588 E2.94619
G0 F9000 X107.4 Y79.369
;TYPE:SKIN
G1 F712 X107.4 Y79.258 E2.95058
G1 X107.4 Y78.753 E2.97052
G1 X107.109 Y78.14 E2.99733
G1 X106.793 Y77.749 E3.01719
G1 X106.666 Y77.591 E3.0252
G1 X106.192 Y77.216 E3.04907
G1 X105.599 Y77.028 E3.07364
G1 X105.389 Y77.05 E3.08199
G1 X105.19 Y77.071 E3.08989
G1 X104.919 Y77.209 E3.1019
G1 X104.839 Y77.374 E3.10915
G1 X104.919 Y77.545 E3.1166
G1 X105.439 Y78.091 E3.14639
G1 X105.686 Y78.283 E3.15875
G1 X106.704 Y79.078 E3.20977
G1 X107.275 Y79.365 E3.23501
G1 X107.316 Y79.366 E3.23663
G1 X107.4 Y79.369 E3.23996
G0 F9000 X107.072 Y79.039
G1 F712 X107.2 Y78.911 E3.24711
G0 F9000 X107.054 Y78.491
G1 F712 X106.927 Y78.618 E3.2542
G1 X106.712 Y78.833 E3.26621
G0 F9000 X106.395 Y78.584
G1 F712 X106.846 Y78.133 E3.29141
G0 F9000 X106.594 Y77.82
G1 F712 X106.209 Y78.205 E3.31291
G1 X106.143 Y78.27 E3.31657
G1 X106.077 Y78.336 E3.32026
G0 F9000 X105.76 Y78.088
G1 F712 X105.819 Y78.029 E3.32356
G1 X106.296 Y77.552 E3.3502
G0 F9000 X105.937 Y77.345
G1 F712 X105.46 Y77.822 E3.37685
G0 F9000 X105.184 Y77.532
M205 X30 Y30
G1 F712 X105.474 Y77.242 E3.39305
M204 S1500
G0 F9000 X105.483 Y77.334
G1 F2700 E-3.10695
;MESH:NONMESH
G0 F600 X105.483 Y77.334 Z1.8
G0 F9000 X107.707 Y79.838
G0 X110.187 Y82.263
G0 X130.23 Y104.457
;TIME_ELAPSED:16.751832
;LAYER:2
;note -- min layer time used
M205 X50 Y50
;TYPE:WALL-OUTER
;MESH:octofrog.stl
G1 F2700 E3.39305
G1 F1800 X130.481 Y104.253 E3.40522
G1 X130.471 Y104.1 E3.41099
G1 X130.071 Y103.347 E3.44307
G1 X129.402 Y102.983 E3.47172
G1 X129.052 Y102.944 E3.48497
G1 X128.943 Y103.19 E3.49509
G1 X129.034 Y103.404 E3.50384
G1 X129.527 Y104.016 E3.5334
G1 X130.23 Y104.457 E3.56463
M204 S3500
G0 F9000 X130.481 Y104.253
G0 X130.471 Y104.1
G0 X130.32 Y103.814
G0 X129.817 Y103.651
M205 X30 Y30
;TYPE:WALL-INNER
G1 F1701.8 X129.737 Y103.605 E3.56873
G1 X129.738 Y103.697 E3.57282
G1 X129.817 Y103.651 E3.57689
M204 S1500
G1 F2700 E-2.92311
G0 F9000 X130.988 Y100.158
G0 X134.572 Y92.063
G0 X135.835 Y88.832
G0 X137.296 Y88.133
G0 X137.749 Y87.527
M205 X50 Y50
;TYPE:WALL-OUTER
G1 F2700 E3.57689
G1 F1800 X136.871 Y87.29 E3.6111
G1 X136.187 Y87.443 E3.63747
G1 X135.47 Y87.947 E3.67044
G1 X135.321 Y88.486 E3.69148
G1 X135.51 Y88.889 E3.70823
G1 X136.174 Y89.211 E3.73599
G1 X136.409 Y89.23 E3.74486
G1 X137.115 Y89.095 E3.7719
G1 X137.447 Y88.964 E3.78533
G1 X137.764 Y88.717 E3.80045
G1 X137.972 Y88.411 E3.81437
G1 X138.007 Y87.95 E3.83176
G1 X137.749 Y87.527 E3.8504
M204 S3500
G0 F9000 X136.977 Y87.319
G0 X136.856 Y88.02
G0 X137.247 Y88.613
;TYPE:WALL-INNER
G1 F1843.3 X137.581 Y88.274 E3.8701
G1 X137.599 Y88.048 E3.87948
G1 X137.492 Y87.872 E3.888
G1 X136.862 Y87.702 E3.91501
G1 X136.352 Y87.816 E3.93663
G1 X135.818 Y88.192 E3.96366
G1 X135.747 Y88.451 E3.97477
G1 X135.826 Y88.619 E3.98246
G1 X136.265 Y88.817 E4.00239
G1 X137.003 Y88.709 E4.03325
G1 X137.247 Y88.613 E4.0441
G0 F9000 X137.097 Y88.339
;TYPE:SKIN
;BRIDGE
G1 F1800 X137.266 Y88.122 E4.05413
G1 X136.856 Y88.014 E4.06958
M205 X30 Y30
G1 X136.476 Y88.1 E4.08381
G1 X136.091 Y88.412 E4.10192
G1 X136.322 Y88.51 E4.11109
G1 X137.097 Y88.339 E4.14009
M204 S1500
G0 F9000 X136.851 Y88.332
G1 F2700 E-2.35991
G0 F9000 X135.673 Y88.088
G0 X132.333 Y87.154
G0 X125.725 Y82.401
G0 X123.498 Y79.743
G0 X122.386 Y79.734
G0 X122.307 Y80.446
M205 X50 Y50
;TYPE:WALL-OUTER
G1 F2700 E4.14009
G1 F1800 X122.678 Y80.422 E4.15407
G1 X123.059 Y80.283 E4.16933
G1 X123.634 Y79.925 E4.19481
G1 X124.591 Y79.125 E4.24174
G1 X125.306 Y78.744 E4.27222
G1 X125.695 Y78.537 E4.2888
G1 X126.414 Y78.121 E4.32005
G1 X126.755 Y77.754 E4.3389
G1 X126.939 Y77.358 E4.35532
G1 X126.89 Y76.909 E4.37232
G1 X126.569 Y76.41 E4.39464
G1 X126.093 Y75.974 E4.41892
G1 X125.37 Y75.788 E4.44701
G1 X124.561 Y75.788 E4.47744
G1 X124.002 Y75.928 E4.49912
G1 X123.446 Y76.235 E4.52302
G1 X123.207 Y76.367 E4.53329
G1 X122.618 Y76.922 E4.56373
G1 X122.168 Y77.518 E4.59183
G1 X121.662 Y78.423 E4.63084
G1 X121.495 Y79.234 E4.66199
G1 X121.57 Y79.721 E4.68053
G1 X121.747 Y80.1 E4.69626
G1 X121.995 Y80.354 E4.70962
G1 X122.307 Y80.446 E4.72186
M204 S3500
G0 F9000 X122.678 Y80.422
G0 X123.059 Y80.283
G0 X123.077 Y80.272
G0 X122.883 Y79.921
;TYPE:WALL-INNER
G1 F1843.3 X123.399 Y79.6 E4.747
G1 X124.358 Y78.8 E4.79869
G1 X125.43 Y78.225 E4.84903
G1 X125.517 Y78.178 E4.85312
G1 X126.162 Y77.805 E4.88395
G1 X126.419 Y77.528 E4.89959
G1 X126.529 Y77.291 E4.9104
G1 X126.502 Y77.046 E4.9206
G1 X126.26 Y76.67 E4.93911
G1 X125.897 Y76.337 E4.95949
G1 X125.325 Y76.19 E4.98393
G1 F1886.5 X125.32 Y76.188 E4.98416
G1 X124.61 Y76.188 E5.01354
G1 X124.15 Y76.303 E5.03316
G1 X123.946 Y76.416 E5.04281
G1 X123.445 Y76.693 E5.0665
G1 X122.917 Y77.19 E5.09651
G1 X122.504 Y77.737 E5.12488
G1 X122.041 Y78.564 E5.1641
G1 X121.901 Y79.244 E5.19283
G1 X121.956 Y79.604 E5.2079
G1 X122.208 Y80 E5.22732
G1 X122.595 Y80.026 E5.24338
G1 X122.883 Y79.921 E5.25606
G0 F9000 X122.524 Y79.706
;TYPE:SKIN
G1 F1886.5 X122.603 Y79.663 E5.25961
G1 F1929.8 X123.207 Y79.337 E5.28673
G1 X124.188 Y78.522 E5.33711
G1 X125.828 Y77.646 E5.41055
G1 X125.914 Y77.6 E5.41441
G1 X126.197 Y77.223 E5.43303
G1 X126.01 Y76.875 E5.44863
G1 X125.738 Y76.626 E5.4632
G1 X125.275 Y76.509 E5.48206
G1 X124.653 Y76.508 E5.50663
G1 X124.262 Y76.604 E5.52254
G1 X123.962 Y76.771 E5.5361
G1 F1973.1 X123.639 Y76.951 E5.55071
G1 X123.15 Y77.411 E5.57723
G1 X122.768 Y77.914 E5.60218
G1 X122.346 Y78.676 E5.63659
G1 X122.224 Y79.249 E5.65973
G1 X122.264 Y79.499 E5.66973
G1 X122.384 Y79.703 E5.67908
G1 X122.524 Y79.706 E5.68461
G0 F9000 X122.94 Y78.932
G1 F1347.5 X123.924 Y78.114 E5.75563
G1 F1603.8 X123.925 Y78.113 E5.7557
G1 F1568.7 X124.272 Y78.017 E5.77283
G1 F1929.8 X124.59 Y77.847 E5.78708
G1 X125.647 Y77.283 E5.8344
G1 X125.712 Y77.198 E5.83863
G1 X125.526 Y76.987 E5.84974
G1 X125.218 Y76.908 E5.8623
G1 X125.045 Y76.908 E5.86914
G1 F1886.5 X124.704 Y76.908 E5.88261
G1 X124.406 Y76.981 E5.89473
G1 F1697.9 X123.838 Y77.294 E5.92291
G1 F1401.5 X123.727 Y77.442 E5.93244
G1 F1369.4 X123.448 Y77.811 E5.95629
G1 X123.169 Y78.181 E5.98018
G1 F1258.8 X122.802 Y78.845 E6.02229
G1 X122.761 Y79.032 E6.03291
G1 X122.94 Y78.932 E6.04429
G0 F9000 X124.078 Y77.651
M205 X30 Y30
G1 F1654.8 X124.561 Y77.381 E6.06839
M204 S1500
G1 F2700 E-0.43161
G0 F9000 X121.882 Y78.506
G0 X118.484 Y77.808
G0 X111.548 Y77.986
G0 X108.259 Y79.082
G0 X107.626 Y79.733
G0 X107.998 Y80.358
M205 X50 Y50
;TYPE:WALL-OUTER
G1 F2700 E6.06839
G1 F1800 X108.249 Y80.103 E6.08185
G1 X108.427 Y79.73 E6.0974
G1 X108.488 Y79.052 E6.12301
G1 X108.196 Y78.174 E6.15782
G1 X107.828 Y77.518 E6.18612
G1 X107.378 Y76.922 E6.21421
G1 X106.789 Y76.368 E6.24463
G1 X106.551 Y76.238 E6.25484
G1 X105.989 Y75.932 E6.27891
G1 X105.434 Y75.785 E6.30051
G1 X104.626 Y75.788 E6.33091
G1 X103.903 Y75.974 E6.35899
G1 X103.427 Y76.414 E6.38338
G1 X103.106 Y76.909 E6.40558
G1 X103.057 Y77.358 E6.42257
G1 X103.241 Y77.754 E6.43899
G1 X103.587 Y78.125 E6.45808
G1 X104.328 Y78.555 E6.49031
G1 X104.691 Y78.745 E6.50573
G1 X105.386 Y79.11 E6.53526
G1 X106.374 Y79.933 E6.58363
G1 X106.937 Y80.282 E6.60855
G1 X107.318 Y80.422 E6.62383
G1 X107.69 Y80.446 E6.63785
G1 X107.998 Y80.358 E6.6499
M204 S3500
G0 F9000 X108.249 Y80.103
G0 X108.427 Y79.73
G0 X108.429 Y79.702
G0 X107.787 Y80.002
;TYPE:WALL-INNER
G1 F1843.3 X108.035 Y79.622 E6.66868
G1 X108.082 Y79.1 E6.69037
G1 X107.829 Y78.336 E6.72367
G1 X107.492 Y77.738 E6.75208
G1 X107.079 Y77.19 E6.78048
G1 X106.553 Y76.694 E6.8104
G1 X106.034 Y76.411 E6.83486
G1 X105.84 Y76.306 E6.84399
G1 X105.383 Y76.185 E6.86355
G1 X104.677 Y76.188 E6.89277
G1 X104.228 Y76.303 E6.91195
G1 F1886.5 X104.101 Y76.336 E6.91738
G1 X103.735 Y76.674 E6.938
G1 X103.494 Y77.047 E6.95637
G1 X103.467 Y77.291 E6.96653
G1 X103.577 Y77.528 E6.97735
G1 X103.839 Y77.809 E6.99325
G1 X104.514 Y78.201 E7.02555
G1 X104.576 Y78.233 E7.02844
G1 X105.626 Y78.784 E7.07751
G1 X106.609 Y79.609 E7.13062
G1 X107.401 Y80.026 E7.16766
G1 X107.787 Y80.002 E7.18366
G0 F9000 X107.72 Y79.531
;TYPE:SKIN
G1 F1886.5 X107.728 Y79.431 E7.18762
G1 F1929.8 X107.753 Y79.136 E7.19932
G1 X107.531 Y78.457 E7.22754
G1 X107.228 Y77.918 E7.25196
G1 X106.842 Y77.411 E7.27713
G1 X106.357 Y76.956 E7.3034
G1 X105.721 Y76.608 E7.33204
G1 X105.338 Y76.505 E7.34771
G1 X104.723 Y76.508 E7.372
G1 X104.259 Y76.626 E7.39092
G1 X103.979 Y76.882 E7.4059
G1 X103.796 Y77.222 E7.42116
G1 X104.044 Y77.555 E7.43756
G1 X104.159 Y77.622 E7.44281
G1 X104.624 Y77.894 E7.46409
G1 F1973.1 X104.661 Y77.916 E7.4658
G1 X105.813 Y78.522 E7.51721
G1 X106.797 Y79.345 E7.56789
G1 X107.469 Y79.706 E7.59802
G1 X107.614 Y79.702 E7.60375
G1 X107.72 Y79.531 E7.6117
G0 F9000 X107.206 Y79.016
G1 F1353 X107.089 Y78.663 E7.63226
G1 X106.472 Y77.725 E7.69435
G1 F1611.4 X106.471 Y77.724 E7.69442
G1 F1576 X106.117 Y77.279 E7.72138
G1 F1929.8 X105.617 Y77.006 E7.74388
G1 X105.569 Y76.98 E7.74604
G1 X105.286 Y76.905 E7.7576
G1 X104.769 Y76.908 E7.77802
G1 X104.466 Y76.983 E7.79035
G1 X104.277 Y77.2 E7.80172
G1 X104.354 Y77.304 E7.80683
G1 X105.692 Y78.002 E7.86645
G1 F1568.7 X105.693 Y78.003 E7.86651
G1 F1533.5 X106.057 Y78.104 E7.8845
G1 F1288.4 X106.349 Y78.345 E7.90551
G1 X107.075 Y78.945 E7.95778
G1 F1293.6 X107.076 Y78.946 E7.95786
G1 F1264 X107.206 Y79.016 E7.96603
G0 F9000 X105.885 Y77.633
G1 F1650.6 X105.754 Y77.563 E7.97251
M205 X30 Y30
G1 X105.41 Y77.377 E7.98958
M204 S1500
G1 F2700 E1.48958
G0 F9000 X103.73 Y77.944
G0 X101.198 Y80.314
G0 X96.334 Y85.259
G0 X94.328 Y88.089
G0 X94.486 Y88.892
M205 X50 Y50
;TYPE:WALL-OUTER
G1 F2700 E7.98958
G1 F1800 X94.675 Y88.486 E8.00643
G1 X94.526 Y87.95 E8.02736
G1 X93.813 Y87.443 E8.06027
G1 X93.125 Y87.29 E8.08679
G1 X92.247 Y87.528 E8.12101
G1 X91.992 Y87.953 E8.13966
G1 X92.024 Y88.412 E8.15697
G1 X92.232 Y88.717 E8.17085
G1 X92.549 Y88.964 E8.18597
G1 X92.88 Y89.095 E8.19937
G1 X93.587 Y89.23 E8.22644
G1 X93.822 Y89.211 E8.23531
G1 X94.486 Y88.892 E8.26303
M204 S3500
G0 F9000 X94.675 Y88.486
G0 X94.581 Y88.147
G0 X94.171 Y88.62
;TYPE:WALL-INNER
G1 F1843.3 X94.25 Y88.451 E8.27075
G1 X94.179 Y88.194 E8.28178
G1 X93.647 Y87.816 E8.30879
G1 X93.135 Y87.702 E8.3305
G1 X92.507 Y87.872 E8.35742
G1 X92.4 Y88.051 E8.36605
G1 X92.416 Y88.276 E8.37539
